components/icon/svg/24/action_print.svg

<?xml version="1.0" encoding="UTF-8"?>
<svg width="24px" height="24px" viewBox="0 0 24 24" version="1.1" xmlns="http://www.w3.org/2000/svg" xmlns:xlink="http://www.w3.org/1999/xlink">
    <!-- Generator: Sketch 64 (93537) - https://sketch.com -->
    <title>ic-db_action_print_24</title>
    <desc>Created with Sketch.</desc>
    <g id="Symbols" stroke="none" stroke-width="1" fill="none" fill-rule="evenodd">
        <g id="24dp-Icon/Action/Print" fill="#282D37">
            <path d="M16.0281322,2 C17.1053712,2 17.9953944,2.88992344 17.9953944,3.99058936 L17.9953944,3.99058936 L17.9953944,6.00460563 L19.0023527,6.00460563 C20.6417378,6.00460563 22,7.33954063 22,9.00235266 L22,9.00235266 L22,14.9976473 C22,16.6604594 20.6417378,17.9953944 19.0023527,17.9953944 L19.0023527,17.9953944 L17.9953944,17.9953944 L17.9953944,20.0094106 C17.9953944,21.1100766 17.1053712,22 16.0281322,22 L16.0281322,22 L7.97186777,22 C6.89462876,22 6.00460563,21.1100766 6.00460563,20.0094106 L6.00460563,20.0094106 L6.00460563,17.9953944 L4.99764734,17.9953944 C3.35826222,17.9953944 2,16.6604594 2,14.9976473 L2,14.9976473 L2,9.00235266 C2,7.33954063 3.35826222,6.00460563 4.99764734,6.00460563 L4.99764734,6.00460563 L6.00460563,6.00460563 L6.00460563,3.99058936 C6.00460563,2.88992344 6.89432969,2 7.97186777,2 L7.97186777,2 Z M16.0047053,16.0047053 L7.99529468,16.0047053 L7.99529468,20.0094106 L16.0047053,20.0094106 L16.0047053,16.0047053 Z M19.0023527,7.99529468 L4.99764734,7.99529468 C4.45902783,7.99529468 4.01401627,8.44030624 4.01401627,9.00235266 L4.01401627,9.00235266 L4.01401627,14.9976473 C4.01401627,15.5596938 4.45902783,16.0047053 4.99764734,16.0047053 L4.99764734,16.0047053 L6.00460563,16.0047053 C6.00460563,14.9040394 6.87120185,13.9906891 7.97186777,13.9906891 L7.97186777,13.9906891 L16.0281322,13.9906891 C17.1287981,13.9906891 17.9953944,14.9040394 17.9953944,16.0047053 L17.9953944,16.0047053 L19.0023527,16.0047053 C19.5409722,16.0047053 19.9859837,15.5596938 19.9859837,14.9976473 L19.9859837,14.9976473 L19.9859837,9.00235266 C19.9859837,8.44030624 19.5409722,7.99529468 19.0023527,7.99529468 L19.0023527,7.99529468 Z M16.0047053,4.01401627 L7.99529468,4.01401627 L7.99529468,6.00460563 L16.0047053,6.00460563 L16.0047053,4.01401627 Z M6.00460563,10.9999505 C6.00460563,10.4418156 6.45169862,10 6.99283739,10 L9.01637387,10 C9.55751264,10 10.0046056,10.4418156 10.0046056,10.9999505 C10.0046056,11.5580854 9.55751264,12 9.01637387,12 L6.99283739,12 C6.45169862,12 6.00460563,11.5580854 6.00460563,10.9999505 Z" id="🎨-Color"></path>
        </g>
    </g>
</svg>

<svg width="24" height="24" xmlns="http://www.w3.org/2000/svg"><path d="M16.028 2c1.077 0 1.967.89 1.967 1.99v2.015h1.007A3.003 3.003 0 0122 9.002v5.996a3.003 3.003 0 01-2.998 2.997h-1.007v2.014c0 1.101-.89 1.991-1.967 1.991H7.972c-1.077 0-1.967-.89-1.967-1.99v-2.015H4.998A3.003 3.003 0 012 14.998V9.002a3.003 3.003 0 012.998-2.997h1.007V3.99C6.005 2.89 6.895 2 7.972 2zm-.023 14.005h-8.01v4.004h8.01v-4.004zm2.997-8.01H4.998a.995.995 0 00-.984 1.007v5.996a.995.995 0 00.984 1.007h1.007c0-1.101.866-2.014 1.967-2.014h8.056c1.1 0 1.967.913 1.967 2.014h1.007a.995.995 0 00.984-1.007V9.002a.995.995 0 00-.984-1.007zm-2.997-3.981h-8.01v1.99h8.01v-1.99zM6.005 11c0-.558.447-1 .988-1h2.023c.542 0 .989.442.989 1s-.447 1-.989 1H6.993a.993.993 0 01-.988-1z" fill="#282D37" fill-rule="evenodd"/></svg>
